X: 30021
T: Off She Goes
R: polka
M: 2/4
K: Cmajor
|:CE DE|FA FA/F/|EG AC|ED DF/D/|
CE DE|FA FA/F/|EG DE/D/|1 C2 C2:|2 C2 CA/B/||
|:cA B/A/G|EG FA/F/|EG AC|ED DA/B/|
cA B/A/G|EG FA/F/|EG DE/D/|1 C2 CA/B/:|2 C2 C2||

